svg/glamorous.svg

<?xml version="1.0" encoding="UTF-8" standalone="no"?>
<svg width="180px" height="180px" viewBox="0 0 180 180" version="1.1" xmlns="http://www.w3.org/2000/svg" xmlns:xlink="http://www.w3.org/1999/xlink">
    <!-- Generator: Sketch 40.1 (33804) - http://www.bohemiancoding.com/sketch -->
    <title>glamorous</title>
    <desc>Created with Sketch.</desc>
    <defs></defs>
    <g id="Page-1" stroke="none" stroke-width="1" fill="none" fill-rule="evenodd">
        <g id="glamorous" fill="#000000">
            <path d="M81.2792408,88 L68.4142136,88 L87.7117544,107.297541 L81.2792408,88 L81.2792408,88 Z M83.3874259,88 L96.6125741,88 L90,107.837722 L83.3874259,88 L83.3874259,88 Z M98.7207592,88 L111.585786,88 L92.2882456,107.297541 L98.7207592,88 L98.7207592,88 Z M65.7928932,85.7928932 L73.5857864,78 L75.2071068,78 L105.792893,78 L106.414214,78 L106.914214,78.5 L114.207107,85.7928932 L115.414214,87 L90.7071068,111.707107 L90,112.414214 L64.5857864,87 L64.5857864,87 L65.7928932,85.7928932 L65.7928932,85.7928932 Z M68.4142136,86 L74,80.4142136 L79.5857864,86 L68.4142136,86 L68.4142136,86 Z M84.4142136,86 L90,80.4142136 L95.5857864,86 L84.4142136,86 L84.4142136,86 Z M100.414214,86 L106,80.4142136 L111.585786,86 L100.414214,86 L100.414214,86 Z M92.4142136,80 L103.585786,80 L98,85.5857864 L92.4142136,80 L92.4142136,80 Z M82,85.5857864 L87.5857864,80 L76.4142136,80 L82,85.5857864 L82,85.5857864 Z M17.4142136,0 L0.707106781,16.7071068 L0,17.4142136 L0,0 L17.4142136,0 L17.4142136,0 Z M4.27924078,0 L0,12.8377223 L0,0 L4.27924078,0 L4.27924078,0 Z M14.5857864,0 L2.28824561,12.2975408 L6.38742589,0 L14.5857864,0 L14.5857864,0 Z M180,17.4142136 L162.585786,0 L180,0 L180,17.4142136 L180,17.4142136 Z M165.414214,0 L177.711754,12.2975408 L173.612574,0 L165.414214,0 Z M180,12.8377223 L175.720759,0 L180,0 L180,12.8377223 L180,12.8377223 Z M1.42108547e-14,163 L15.7928932,163 L16.4142136,163 L16.9142136,163.5 L24.2071068,170.792893 L25.4142136,172 L17.4142136,180 L0,180 L0,163 L1.42108547e-14,163 Z M0,173 L6.61257411,173 L4.27924078,180 L0,180 L0,173 Z M14.5857864,180 L21.5857864,173 L8.72075922,173 L6.38742589,180 L14.5857864,180 Z M2.4158453e-13,165.414214 L5.58578644,171 L0,171 L0,165.414214 L2.4158453e-13,165.414214 Z M10.4142136,171 L16,165.414214 L21.5857864,171 L10.4142136,171 Z M2.41421356,165 L13.5857864,165 L8,170.585786 L2.41421356,165 Z M180,163 L165.207107,163 L163.585786,163 L155.792893,170.792893 L155.792893,170.792893 L154.585786,172 L162.585786,180 L180,180 L180,163 Z M165.414214,180 L158.414214,173 L171.279241,173 L173.612574,180 L165.414214,180 Z M180,173 L173.387426,173 L175.720759,180 L180,180 L180,173 Z M158.414214,171 L164,165.414214 L169.585786,171 L158.414214,171 Z M180,165.414214 L174.414214,171 L180,171 L180,165.414214 Z M172,170.585786 L177.585786,165 L166.414214,165 L172,170.585786 Z M152.932504,25.6532829 L154.346717,27.0674965 L120.405592,61.008622 L118.991378,59.5944084 L152.932504,25.6532829 Z M154.346717,152.932504 L152.932504,154.346717 L118.991378,120.405592 L120.405592,118.991378 L154.346717,152.932504 Z M27.0674965,154.346717 L25.6532829,152.932504 L59.5944084,118.991378 L61.008622,120.405592 L27.0674965,154.346717 Z M25.6532829,27.0674965 L27.0674965,25.6532829 L61.008622,59.5944084 L59.5944084,61.008622 L25.6532829,27.0674965 Z M0,85 C2.209139,85 4,86.790861 4,89 C4,91.209139 2.209139,93 0,93 L0,85 Z M180,85 C177.790861,85 176,86.790861 176,89 C176,91.209139 177.790861,93 180,93 L180,85 Z M94,0 C94,2.209139 92.209139,4 90,4 C87.790861,4 86,2.209139 86,0 L94,0 Z M94,180 C94,177.790861 92.209139,176 90,176 C87.790861,176 86,177.790861 86,180 L94,180 Z" id="Combined-Shape"></path>
        </g>
    </g>
</svg>

<svg width="180" height="180" xmlns="http://www.w3.org/2000/svg"><path d="M81.28 88H68.413l19.298 19.298L81.279 88Zm2.107 0h13.226L90 107.838 83.387 88Zm15.334 0h12.865l-19.298 19.298L98.721 88Zm-32.928-2.207L73.586 78h32.828l.5.5 7.293 7.293L115.414 87l-24.707 24.707-.707.707L64.586 87l1.207-1.207Zm2.621.207L74 80.414 79.586 86H68.414Zm16 0L90 80.414 95.586 86H84.414Zm16 0L106 80.414 111.586 86h-11.172Zm-8-6h11.172L98 85.586 92.414 80ZM82 85.586 87.586 80H76.414L82 85.586ZM17.414 0 .707 16.707 0 17.414V0h17.414ZM4.28 0 0 12.838V0h4.28Zm10.307 0L2.288 12.298 6.388 0h8.198ZM180 17.414 162.586 0H180v17.414ZM165.414 0l12.298 12.298L173.612 0h-8.198ZM180 12.838 175.72 0H180v12.838ZM0 163H16.414l.5.5 7.293 7.293L25.414 172l-8 8H0v-17Zm0 10h6.613l-2.334 7H0v-7Zm14.586 7 7-7H8.72l-2.334 7h8.199ZM0 165.414 5.586 171H0v-5.586ZM10.414 171 16 165.414 21.586 171H10.414Zm-8-6h11.172L8 170.586 2.414 165ZM180 163H163.586l-7.793 7.793-1.207 1.207 8 8H180v-17Zm-14.586 17-7-7h12.865l2.334 7h-8.199ZM180 173h-6.613l2.334 7H180v-7Zm-21.586-2 5.586-5.586 5.586 5.586h-11.172ZM180 165.414 174.414 171H180v-5.586Zm-8 5.172 5.586-5.586h-11.172l5.586 5.586ZM152.933 25.653l1.414 1.414-33.941 33.942-1.415-1.415 33.942-33.94Zm1.414 127.28-1.414 1.414-33.942-33.941 1.415-1.415 33.94 33.942Zm-127.28 1.414-1.414-1.414 33.941-33.942 1.415 1.415-33.942 33.94Zm-1.414-127.28 1.414-1.414L61.01 59.594l-1.415 1.415-33.94-33.942ZM0 85a4 4 0 1 1 0 8v-8Zm180 0a4 4 0 1 0 0 8v-8ZM94 0a4 4 0 1 1-8 0h8Zm0 180a4 4 0 1 0-8 0h8Z" fill="#000" fill-rule="evenodd"/></svg>
